X:1
T:Title
%%score { ( 1 3 ) | ( 2 4 ) }
L:1/8
M:3/4
K:Db
V:1 treble nm="Grand Piano"
V:3 treble 
V:2 bass 
V:4 bass 
V:1
 z2 z2[Q:1/4=94] [FA]>[FA] | [Fd]3 [Fc] [DFB][DA] | [CGA]2 [CEG]2 [CE][EG] | %3
 [EGc]3 [CGB] [DFA][A,EG] |[M:2/4] [A,DF]4 |[M:1/4] [FA]>[FA] |[M:3/4] [Fd]3 [Fc] [FB][FA] | %7
 A2 =G2 GA | B3 d cB |[M:2/4] [A,A]4 |[M:1/4] A>A |[M:3/4] [Af]3 [Fd] [Gc][Ad] | d2 E2 d>d | %13
 c3 B [FA][EG] |[M:2/4] [DF]4 |[M:1/4] [FA]>[FA] |[M:3/4] [Af]2 [Fd]2 [Gc][Ad] | d2 E2 cB | %18
 A3 A Bc |[M:2/4] [Fd]4 |] %20
V:2
 z2 z2 [D,D]>[D,D] | [D,A,]3 [D,A,] D,F, | E,2 A,2 A,A, | A,,3 A,, A,,A,, |[M:2/4] D,4 | %5
[M:1/4] [D,D]>[D,D] |[M:3/4] [D,A,]3 [D,A,] [D,D][=D,_C] | [E,CE]2 [E,B,E]2 [E,B,D][E,A,C] | %8
 [E,=G,E]3 [E,B,E] [E,A,E][E,G,D] |[M:2/4] z2[K:treble] G2 |[M:1/4] A,>[K:bass]A, | %11
[M:3/4] [D,D]3 [D,A,] [E,A,][F,D] | [G,B,G]2 [G,B,D]2[K:treble] [=G,B,E]>[G,B,E] | %13
 [A,E]3 [A,G][K:bass] [A,,A,][A,,A,] |[M:2/4] [D,A,]4 |[M:1/4] [D,D]>[D,D] | %16
[M:3/4] [D,D]2 [D,A,]2 [E,A,][F,A,] | [G,B,G]2 [G,B,D]2[K:treble] [=G,B,_F][G,DF] | %18
 [A,DF]3 [A,DF] [A,CG][A,G] |[M:2/4][K:bass] [D,A,]4 |] %20
V:3
 x6 | x6 | x6 | x6 |[M:2/4] x4 |[M:1/4] x2 |[M:3/4] x6 | x6 | x6 |[M:2/4] C2 z2 |[M:1/4] x2 | %11
[M:3/4] x6 | x6 | x6 |[M:2/4] x4 |[M:1/4] x2 |[M:3/4] x6 | x6 | x6 |[M:2/4] x4 |] %20
V:4
 x6 | x6 | x6 | x6 |[M:2/4] x4 |[M:1/4] x2 |[M:3/4] x6 | x6 | x6 |[M:2/4] A,,4[K:treble] | %10
[M:1/4] x3/2[K:bass] x/ |[M:3/4] x6 | x4[K:treble] x2 | x4[K:bass] x2 |[M:2/4] x4 |[M:1/4] x2 | %16
[M:3/4] x6 | x4[K:treble] x2 | x6 |[M:2/4][K:bass] x4 |] %20

